X:120
T:Hand Me Down the Tackle
R:reel
Z:Transcribed by Dave Marshall
M:C|
K:D
|:dD (3DDD FDFA|dfaf gfec|dD (3DDD FDFA|GFEF GABc|
dD (3DDD FDFA|dfaf gfec|d2dc dBAF|GFEF GABc:|
d2fd Adfd|d2fd BABc|d2fd Adfd|BGEF GABc|
d2fd Adfd|(3Bcd ef g2ag|fdec dAFA|GFEF GABc|
d2fd Adfd|d2fd BABc|d2fd Adfd|BGEF G3z|
~a3b afdf|gfef gbag|fdec dBAF|GFEF GABc||
